icons/redwood.svg

<!--
  - The MIT License (MIT)
  -
  - Copyright (c) 2015-2024 Elior "Mallowigi" Boukhobza
  -
  - Permission is hereby granted, free of charge, to any person obtaining a copy
  - of this software and associated documentation files (the "Software"), to deal
  - in the Software without restriction, including without limitation the rights
  - to use, copy, modify, merge, publish, distribute, sublicense, and/or sell
  - copies of the Software, and to permit persons to whom the Software is
  - furnished to do so, subject to the following conditions:
  -
  - The above copyright notice and this permission notice shall be included in all
  - copies or substantial portions of the Software.
  -
  - THE SOFTWARE IS PROVIDED "AS IS", WITHOUT WARRANTY OF ANY KIND, EXPRESS OR
  - IMPLIED, INCLUDING BUT NOT LIMITED TO THE WARRANTIES OF MERCHANTABILITY,
  - FITNESS FOR A PARTICULAR PURPOSE AND NONINFRINGEMENT. IN NO EVENT SHALL THE
  - AUTHORS OR COPYRIGHT HOLDERS BE LIABLE FOR ANY CLAIM, DAMAGES OR OTHER
  - LIABILITY, WHETHER IN AN ACTION OF CONTRACT, TORT OR OTHERWISE, ARISING FROM,
  - OUT OF OR IN CONNECTION WITH THE SOFTWARE OR THE USE OR OTHER DEALINGS IN THE
  - SOFTWARE.
  -
  -->

<svg width="16px" height="16px" viewBox="0 0 24 24" fill="none" xmlns="http://www.w3.org/2000/svg">
  <path fill-rule="evenodd" clip-rule="evenodd" data-iconColor="RedwoodJS"
        d="M6.9243 3.46996L11.6449 6.65091C11.7514 6.72097 11.8759 6.75931 12.0037 6.76149C12.1316 6.76057 12.2563 6.72211 12.3624 6.65091L17.0866 3.45926C17.2701 3.32951 17.3714 3.11323 17.353 2.89007C17.3346 2.66691 17.1993 2.4699 16.9969 2.3716L12.2762 0.0643314C12.0972 -0.0214438 11.8886 -0.0214438 11.7095 0.0643314L7.0032 2.3716C6.79719 2.47042 6.66012 2.67125 6.64381 2.89806C6.62751 3.12487 6.7345 3.34303 6.9243 3.46996ZM13.6071 7.64943C13.6075 7.8604 13.7121 8.05766 13.8869 8.1772L17.6713 10.7306C17.9135 10.8954 18.2377 10.8749 18.4569 10.6806L21.6315 7.87766C21.773 7.75286 21.8515 7.57217 21.8459 7.38423C21.8404 7.19629 21.7514 7.02046 21.6028 6.90411L18.5717 4.51126C18.3513 4.33848 18.044 4.32695 17.8112 4.48274L13.8869 7.13234C13.7151 7.24971 13.6109 7.44229 13.6071 7.64943ZM4.1945 11.1228C4.34745 11.2585 4.42608 11.4585 4.40614 11.6613C4.38627 11.8653 4.26694 12.0465 4.08689 12.1463L1.827 13.4835C1.59792 13.6187 1.30868 13.5993 1.10004 13.4346C0.891399 13.2699 0.806706 12.9943 0.887177 12.7418L1.72297 10.1457C1.78854 9.94 1.95473 9.78149 2.16419 9.72491C2.37349 9.66474 2.59918 9.71749 2.75965 9.864L4.1945 11.1228ZM16.4516 11.3938L12.366 8.63366C12.1488 8.48943 11.8657 8.48943 11.6485 8.63366L7.56277 11.3938C7.40029 11.5049 7.29737 11.6833 7.28302 11.8788C7.27242 12.0757 7.35144 12.2669 7.49823 12.3995L11.5803 16.0048C11.6981 16.1085 11.85 16.1655 12.0072 16.1653C12.1644 16.1652 12.3162 16.1082 12.4341 16.0048L16.5162 12.3995C16.6634 12.2674 16.7415 12.0755 16.7279 11.8788C16.7165 11.6833 16.6144 11.5041 16.4516 11.3938ZM5.55401 10.6806L2.383 7.87766C2.24032 7.74971 2.16158 7.56577 2.16777 7.37486C2.17122 7.18669 2.25944 7.00994 2.40811 6.89343L5.43922 4.4863C5.66108 4.31401 5.96904 4.30251 6.20328 4.45777L10.124 7.10737C10.3059 7.2252 10.4157 7.4264 10.4157 7.64229C10.4157 7.85817 10.3059 8.05943 10.124 8.1772L6.34318 10.7305C6.09944 10.8947 5.77485 10.8742 5.55401 10.6806ZM21.8359 14.7067L18.6075 12.7989C18.3678 12.6562 18.0626 12.6851 17.8542 12.8702L13.9084 16.3471C13.7419 16.4939 13.6638 16.7158 13.7018 16.9338C13.7398 17.1517 13.8885 17.3345 14.0949 17.417L19.5689 19.6066C19.6439 19.6374 19.7244 19.6531 19.8056 19.6529C20.0597 19.6537 20.2903 19.5055 20.3939 19.2749L22.0906 15.5234C22.2287 15.2265 22.1188 14.8739 21.8359 14.7067ZM22.2843 10.1457L23.1201 12.7418H23.1129C23.1748 12.936 23.1396 13.1479 23.0184 13.3121C22.8972 13.4763 22.7044 13.5731 22.4995 13.5727C22.3846 13.5731 22.2717 13.5423 22.1731 13.4836L19.9096 12.1463C19.7333 12.0445 19.6181 11.8634 19.6012 11.6613C19.58 11.4583 19.6588 11.2578 19.8128 11.1228L21.2476 9.8604C21.4097 9.71703 21.6337 9.66469 21.8431 9.72132C22.0524 9.78034 22.218 9.93971 22.2843 10.1457ZM10.3105 16.932C10.3491 16.715 10.2717 16.4936 10.1061 16.3471L6.16024 12.8702C5.95189 12.6851 5.64669 12.6562 5.40695 12.7989L2.17854 14.7067C1.89901 14.8746 1.78842 15.2228 1.92027 15.5198L3.62056 19.2714C3.76143 19.5842 4.12562 19.7306 4.4456 19.603L9.91597 17.4134C10.1224 17.3317 10.2717 17.1495 10.3105 16.932ZM12.2476 18.0018L16.6382 19.7563C16.8529 19.847 17.0012 20.0463 17.0256 20.277C17.0534 20.5105 16.9484 20.74 16.753 20.8725L12.3588 23.8859C12.2535 23.9589 12.1284 23.9987 12.0001 24C11.8718 23.9981 11.747 23.9583 11.6413 23.8859L7.25072 20.8725C7.05466 20.7403 6.94832 20.5111 6.97455 20.277C7.00384 20.0439 7.15746 19.8449 7.37627 19.7563L11.7669 18.0018C11.9213 17.941 12.0932 17.941 12.2476 18.0018Z"
        fill="#FF5722"/>
</svg>

<svg xmlns="http://www.w3.org/2000/svg" fill="none" viewBox="0 0 24 24"><path fill="#ff5722" fill-rule="evenodd" d="m6.924 3.47 4.72 3.18a.64.64 0 0 0 .718.001l4.725-3.192a.633.633 0 0 0-.09-1.087L12.277.064a.66.66 0 0 0-.567 0L7.003 2.372a.635.635 0 0 0-.079 1.098m6.683 4.18c0 .21.105.408.28.527l3.784 2.554a.64.64 0 0 0 .786-.05l3.174-2.803a.633.633 0 0 0-.028-.974l-3.031-2.393a.65.65 0 0 0-.76-.028l-3.925 2.65a.64.64 0 0 0-.28.516m-9.412 3.473a.64.64 0 0 1 .211.538.62.62 0 0 1-.32.485l-2.259 1.337a.645.645 0 0 1-.727-.048.64.64 0 0 1-.213-.693l.836-2.596a.64.64 0 0 1 .441-.421.63.63 0 0 1 .596.139zm12.257.27-4.086-2.76a.65.65 0 0 0-.717 0l-4.086 2.76a.65.65 0 0 0-.28.486.65.65 0 0 0 .215.52l4.082 3.606a.645.645 0 0 0 .854 0l4.082-3.605a.64.64 0 0 0-.064-1.006m-10.898-.712L2.383 7.878a.647.647 0 0 1 .025-.985L5.44 4.486a.66.66 0 0 1 .764-.028l3.921 2.65a.638.638 0 0 1 0 1.07l-3.78 2.552a.65.65 0 0 1-.79-.05m16.282 4.026-3.228-1.908a.64.64 0 0 0-.754.071l-3.946 3.477a.636.636 0 0 0 .187 1.07l5.474 2.19a.64.64 0 0 0 .825-.332l1.697-3.752a.636.636 0 0 0-.255-.816m.448-4.561.836 2.596h-.007a.64.64 0 0 1-.095.57.643.643 0 0 1-.845.172l-2.263-1.338a.62.62 0 0 1-.309-.485.63.63 0 0 1 .212-.538l1.435-1.263a.65.65 0 0 1 .595-.139c.21.06.375.219.441.425m-11.973 6.786a.63.63 0 0 0-.205-.585L6.16 12.87a.64.64 0 0 0-.753-.071l-3.228 1.908a.644.644 0 0 0-.259.813l1.7 3.751c.141.313.506.46.826.332l5.47-2.19a.64.64 0 0 0 .394-.481m1.937 1.07 4.39 1.754a.639.639 0 0 1 .115 1.116l-4.394 3.014A.64.64 0 0 1 12 24a.65.65 0 0 1-.359-.114l-4.39-3.014a.63.63 0 0 1-.276-.595.65.65 0 0 1 .401-.52l4.39-1.755a.66.66 0 0 1 .482 0" clip-rule="evenodd" data-iconColor="RedwoodJS"/></svg>
